X: 33358
T: Queen Of The Fair
R: jig
M: 6/8
K: Dmajor
G|:~F3 DA,A,|DFA dAF|GBG FGA|BGD EAG|
FED EAA|DFA dAF|GBG EAG|1 FAD D2 E:|2 FAD D2 g||
fdf ece|dAG FED|DFA dAF|GFG E2 g|
fdf ece|dAG FED|EFG EAG|1 FAD D2 g|2 FAD D2 F||
Add fdd|add fdB|AFd geg|fdf ecA|
Add fdd|add fdd|EFG EAG|FAD D2 F||
Add fdd|add fdB|AFd geg|fdf efg|
afa gea|fdg ecA|EFG EAG|FAD DAG||

